X:1
T:GB/7d/1 Painful Plough
%%VWML:GB-7d-1-0
F:http://www.vwml.org/record/GB/7d/1
P:F.W. J(ekyll) & G.S.K B(utterworth)
C:Transcribed by Simon Furey and Lewis Jones
L:1/4
M:4/4
I:linebreak $
K:Gmix
d | G3/2 A/ B c |[M:3/4] d f e |[M:4/4] d3/2 c/ A A | G3 :| G | B c d g |$ f e d B | c c d d | G3/2 A/4G/4 F D | G3/2 A/ B c |[M:3/4] d f e |[M:4/4] d3/2 c/ A A | G3 |]

